icons/svg/code-parentheses.svg

﻿<?xml version="1.0" encoding="utf-8"?>
<!DOCTYPE svg PUBLIC "-//W3C//DTD SVG 1.1//EN" "http://www.w3.org/Graphics/SVG/1.1/DTD/svg11.dtd">
<svg xmlns="http://www.w3.org/2000/svg" xmlns:xlink="http://www.w3.org/1999/xlink" version="1.1" baseProfile="full" width="24" height="24" viewBox="0 0 24.00 24.00" enable-background="new 0 0 24.00 24.00" xml:space="preserve">
	<path fill="#000000" fill-opacity="1" stroke-linejoin="round" d="M 17.6173,2.998C 19.1283,5.272 19.9963,8.549 20.0003,11.996C 19.9983,15.443 19.1313,18.722 17.6213,20.998L 16.0153,19.961C 17.2643,18.073 17.9983,15.126 18.0003,11.996C 17.9973,8.866 17.2623,5.92 16.0133,4.033L 17.6173,2.998 Z M 6.379,2.998L 7.984,4.035C 6.736,5.923 6.002,8.87 6,12C 6.003,15.13 6.738,18.076 7.986,19.963L 6.383,21C 4.871,18.726 4.003,15.447 4,12C 4.002,8.553 4.869,5.274 6.379,2.998 Z "/>
</svg>

<svg xmlns="http://www.w3.org/2000/svg" version="1.1" baseProfile="full" width="24" height="24" viewBox="0 0 24.00 24.00" xml:space="preserve"><path fill="#000" fill-opacity="1" stroke-linejoin="round" d="M17.617 2.998c1.51 2.274 2.38 5.55 2.383 8.998-.002 3.447-.87 6.726-2.38 9.002l-1.605-1.037c1.25-1.887 1.983-4.834 1.985-7.964-.003-3.13-.738-6.076-1.987-7.963l1.604-1.035zm-11.238 0l1.604 1.037C6.736 5.923 6.002 8.87 6 12c.003 3.13.738 6.076 1.986 7.963L6.383 21C4.87 18.726 4.003 15.447 4 12c.002-3.447.87-6.726 2.38-9.002z"/></svg>
